!!!OTL: HERR BACCHUS IST EIN BRAVER MANN
!!!ARE: Europa, Mitteleuropa, Deutschland
!!!SCT: B0343
!!!YEM: Copyright 1995, estate of Helmut Schaffrath.
**kern
*ICvox
*Ivox
*M4/4
*k[b-e-a-]
*E-:
{4b-
=1
4ee-
4ee-
4ee-
4ee-
=2
4.dd
8cc
4b-}
{4cc
=3
4b-
4a-
4g
4f
=4
2g
4e-}
{4g
=5
4f
4g
4a-
4f
=6
4b-
4g
4f}
{4b-
=7
4cc
4b-
8a-
8b-
8cc
8dd
=8
2ee-
4e-}
==
!!!AGN: Trink - Lied
!!!ONB: ESAC (Essen Associative Code) Database: BOEHME
!!!AMT: simple quadruple
!!!AIN: vox
!!!EED: Helmut Schaffrath
!!!EEV: 1.0
*-
